images_elementary_svg/cmd/sc_objectposition.svg

<?xml version="1.0" encoding="UTF-8" standalone="no"?>
<svg
   xmlns:dc="http://purl.org/dc/elements/1.1/"
   xmlns:cc="http://creativecommons.org/ns#"
   xmlns:rdf="http://www.w3.org/1999/02/22-rdf-syntax-ns#"
   xmlns:svg="http://www.w3.org/2000/svg"
   xmlns="http://www.w3.org/2000/svg"
   xmlns:sodipodi="http://sodipodi.sourceforge.net/DTD/sodipodi-0.dtd"
   xmlns:inkscape="http://www.inkscape.org/namespaces/inkscape"
   height="16"
   width="16"
   version="1.1"
   id="svg33"
   sodipodi:docname="sc_objectposition.svg"
   inkscape:version="0.92.3 (2405546, 2018-03-11)">
  <metadata
     id="metadata39">
    <rdf:RDF>
      <cc:Work
         rdf:about="">
        <dc:format>image/svg+xml</dc:format>
        <dc:type
           rdf:resource="http://purl.org/dc/dcmitype/StillImage" />
        <dc:title></dc:title>
      </cc:Work>
    </rdf:RDF>
  </metadata>
  <defs
     id="defs37" />
  <sodipodi:namedview
     pagecolor="#ffffff"
     bordercolor="#666666"
     borderopacity="1"
     objecttolerance="10"
     gridtolerance="10"
     guidetolerance="10"
     inkscape:pageopacity="0"
     inkscape:pageshadow="2"
     inkscape:window-width="1366"
     inkscape:window-height="696"
     id="namedview35"
     showgrid="true"
     inkscape:zoom="20.85965"
     inkscape:cx="16.827656"
     inkscape:cy="9.5937647"
     inkscape:window-x="0"
     inkscape:window-y="0"
     inkscape:window-maximized="1"
     inkscape:current-layer="svg33">
    <inkscape:grid
       type="xygrid"
       id="grid846"
       spacingx="0.5"
       spacingy="0.5" />
  </sodipodi:namedview>
  <linearGradient
     id="a"
     gradientTransform="matrix(.32595 0 0 .35064 2.1 -11.43)"
     gradientUnits="userSpaceOnUse"
     x1="32.095"
     x2="32.095"
     y1="49.712"
     y2="61.119">
    <stop
       offset="0"
       stop-color="#fff"
       id="stop2" />
    <stop
       offset="0"
       stop-color="#fff"
       stop-opacity=".235"
       id="stop4" />
    <stop
       offset="1"
       stop-color="#fff"
       stop-opacity=".157"
       id="stop6" />
    <stop
       offset="1"
       stop-color="#fff"
       stop-opacity=".392"
       id="stop8" />
  </linearGradient>
  <linearGradient
     id="b"
     gradientTransform="matrix(0 -.36364 -.36307 0 20.905 21.41)"
     gradientUnits="userSpaceOnUse"
     x1="46.301"
     x2="24.453"
     y1="24.282"
     y2="24.282">
    <stop
       offset="0"
       stop-color="#ffa154"
       id="stop11" />
    <stop
       offset="1"
       stop-color="#f37329"
       id="stop13" />
  </linearGradient>
  <linearGradient
     id="c"
     gradientUnits="userSpaceOnUse"
     x1="7.889"
     x2="7.889"
     y1="12.506"
     y2="14.561">
    <stop
       offset="0"
       stop-color="#cd9ef7"
       id="stop16" />
    <stop
       offset="1"
       stop-color="#a56de2"
       id="stop18" />
  </linearGradient>
  <path
     style="fill:#fafafa"
     d="M 1 1 L 1 2 L 15 2 L 15 1 L 1 1 z M 1 5 L 1 6 L 15 6 L 15 5 L 1 5 z M 1 9 L 1 10 L 15 10 L 15 9 L 1 9 z M 1 13 L 1 14 L 15 14 L 15 13 L 1 13 z "
     id="path29" />
  <path
     style="opacity:0.5;fill:none;stroke:#000000;stroke-linecap:round;stroke-linejoin:round;stroke-opacity:0.75"
     d="M 0.5 0.5 L 0.5 2.5 L 15.5 2.5 L 15.5 0.5 L 0.5 0.5 z M 0.5 4.5 L 0.5 6.5 L 15.5 6.5 L 15.5 4.5 L 0.5 4.5 z M 0.5 8.5 L 0.5 10.5 L 15.5 10.5 L 15.5 8.5 L 0.5 8.5 z M 0.5 12.5 L 0.5 14.5 L 15.5 14.5 L 15.5 12.5 L 0.5 12.5 z "
     id="path31" />
</svg>

<svg height="16" width="16" xmlns="http://www.w3.org/2000/svg"><path d="m1 1v1h14v-1zm0 4v1h14v-1zm0 4v1h14v-1zm0 4v1h14v-1z" fill="#fafafa"/><path d="m.5.5v2h15v-2zm0 4v2h15v-2zm0 4v2h15v-2zm0 4v2h15v-2z" style="opacity:.5;fill:none;stroke:#000;stroke-linecap:round;stroke-linejoin:round;stroke-opacity:.75"/></svg>
